Sources/FrostedUI/Resources/Icons.xcassets/pauseCircle20.imageset/pause-circle-20.svg

<svg width="20" height="20" viewBox="0 0 20 20" fill="none" xmlns="http://www.w3.org/2000/svg" data-fui-icon="true">
  <path
    d="M10 1C14.9706 1 19 5.02944 19 10C19 14.9706 14.9706 19 10 19C5.02944 19 1 14.9706 1 10C1 5.02944 5.02944 1 10 1ZM10 2.5C5.85786 2.5 2.5 5.85786 2.5 10C2.5 14.1421 5.85786 17.5 10 17.5C14.1421 17.5 17.5 14.1421 17.5 10C17.5 5.85786 14.1421 2.5 10 2.5ZM7.75 7C8.16421 7 8.5 7.33579 8.5 7.75V12.25C8.49995 12.6642 8.16418 13 7.75 13C7.33582 13 7.00005 12.6642 7 12.25V7.75C7 7.33579 7.33579 7 7.75 7ZM12.25 7C12.6642 7 13 7.33579 13 7.75V12.25C12.9999 12.6642 12.6642 13 12.25 13C11.8358 13 11.5001 12.6642 11.5 12.25V7.75C11.5 7.33579 11.8358 7 12.25 7Z"
    fill="currentColor"
  />
</svg>

<svg xmlns="http://www.w3.org/2000/svg" width="20" height="20" fill="none" data-fui-icon="true" viewBox="0 0 20 20"><path fill="currentColor" d="M10 1a9 9 0 1 1 0 18 9 9 0 0 1 0-18m0 1.5a7.5 7.5 0 1 0 0 15 7.5 7.5 0 0 0 0-15M7.75 7a.75.75 0 0 1 .75.75v4.5a.75.75 0 0 1-1.5 0v-4.5A.75.75 0 0 1 7.75 7m4.5 0a.75.75 0 0 1 .75.75v4.5a.75.75 0 0 1-1.5 0v-4.5a.75.75 0 0 1 .75-.75"/></svg>
